public/assets/img/material-icons/view_quilt.svg

<svg height="24" viewBox="0 0 24 24" width="24" xmlns="http://www.w3.org/2000/svg"><path d="m21 5v6.5h-11.67v-6.5zm-6.33 14v-6.5h-5.34v6.5zm1-6.5v6.5h5.33v-6.5zm-7.34 6.5v-14h-5.33v14z"/></svg>

<svg xmlns="http://www.w3.org/2000/svg" width="24" height="24" viewBox="0 0 24 24"><path d="M21 5v6.5H9.33V5H21zm-6.33 14v-6.5H9.33V19h5.34zm1-6.5V19H21v-6.5h-5.33zM8.33 19V5H3v14h5.33z"/></svg>
